!!!!SEGMENT: pl-wtm--r-554-m_moniuszko-stanislaw--paria-scena-i.krn
!!!cenid: 18xx:3043
!!!COM: Moniuszko, Stanisław
!!!COM-rismID: pe30008351
!!!CDT: 1819/05/05-1872/06/04
!!!CNT: Polish
!!!GTL: Paria
!!!OTL: Scena I
!!!PDT:
!!!AGN: Secular
!!!SMS-siglum: PL-Wtm
!!!SMS-shelfmark: R 554/M
!!!SMS-shelfwork: G
!!!SMS-variant:
!!!SMS-altvar:
!!!NIFC-rismSourceID: 1001091077
!!!NIFC-rismChildID: 1001091077
!!!NIFC-islandoraID:
!!!URL-pdf-islandora:
!!!URL-scan:
!!!IIIF:
!!!ONB-nifc: UWAGA: skan 0014
!!!AIN: 1 vox
!!!key:
**kern	**text
*Ivox	*
*I"Canto	*
*I'C.	*
*clefG2	*
*k[f#]	*
*a:	*
*M4/4	*
*met(c)	*
=1	=1
2r	.
!LO:TX:a:t=Ralef.	!
4e/	Un
8g/	ne-
8a/	-ro
=2	=2
4.b\	ve-
8b\	-lo,_il
4a/	ciel
8g/L	cie-
8a/J	-lo_os-
=3	=3
4b/	-cu-
8e/	-ra,
8r	.
4g/	al-
8f#/	-la_è
8e/	la
!!LO:LB:g=original
=4	=4
4a/	not-
8a/	-te,
16r	.
16a/	nè
(4b/	po-
8g/)	-si
8e/	an-
=5	=5
4cc\	-cor?
4r	.
4cc\	qual
8b\	qui
8cc\	ti
=6	=6
4g/	traſ-
8g/	-se,
16r	.
16g/	mo-
(4a/	-le-
8g/)	.
8fn/	-sta
!!LO:LB:g=original
=7	=7
4g/	cu-
8g/	-ra
8r	.
4e/	o
8g/	du-
8a/	-ce
=8	=8
4b\	no-
8b\	-stro!
16r	.
16b\	o
4a^/	du-
8.g/	-ce
16a/	a-
=9	=9
1b	-ma-
=10	=10
4e/	-to.
4r	.
4r	.
*clefG2	*
!LO:TX:a:t=Idamos.	!
4b\	Il
!!LO:LB:g=original
=11	=11
!LO:TX:t=lento:rj	!
[4ee\	Di-
!LO:TUP:a:problem=brak klamry	!
12ee\]	.
12dd\	-o
12cc\	d'a-
4b\	-mor
4r	.
=12	=12
2r	.
8r	.
8ee\	Tra
8dd\	po-
8ee\	-co
=13	=13
4.cc\	sor-
8g/	-ge,
4g/	ve-
8fn/	-drem
8g/	l'au-
!!LO:LB:g=original
=14	=14
4fn/	-ro-
8e/	-ra
8r	.
4g/	e-an-
8cc\	-cor
8ee\	Ne-
=15	=15
*2\right	*
2gg\	-a-
8ee\	-li
8ee\	non
8dd\	rie-
8cc\	-de
=16	=16
4ee\	qui!
4r	.
*clefG2	*
!LO:TX:a:t=R.	!
4cc\	Co-
8b\	-me!
16r	.
16cc\	la
!!LO:LB:g=original
=17	=17
4a/	ver-
8e/	-gin
16r	.
16e/	che
4e/	Bra-
8d/L	-ma
8e/J	a-
=18	=18
4d/	-do-
4c/	-ra
8.e/	o-
16e/	-si
8a/	tu
8cc\	a-
=19	=19
2ee\	-ma-
8cc\	-re
8cc\	.
8b\	.
8a/	.
!!LO:LB:g=original
=20	=20
4dd\	.
4r	.
*clefG2	*
!LO:TX:a:t=I.	!
4dd\	Io
8.ee\	l'a-
16dd\	-mo
=21	=21
4dd\	vi.
8r	.
*clefG2	*
!LO:TX:a:t=R.	!
16a/	che
16a/	as-
4.cc\	-col-
8b\	-ta_io
=22	=22
4b\	mai!
4r	.
*clefG2	*
!LO:TX:a:t=J.	!
4b\	Tra
8b\	po-
8b\	-co_il
!!LO:LB:g=original
=23||	=23||
*k[f#c#g#d#]	*
4.b\	gior-
8b\	-no
(4cc#\	con
8dd#\)	.
8cc#\	dur-
=24	=24
2b\	-ra
4b\	qui-
8cc#\	-vi
8dd#\	la
=25	=25
4.ee\	gen-
8e/	-te
(4.g#/	pi-
8f#/)	.
=26	=26
4e/	-a.
4r	.
!!LO:LB:g=original
=-	=-
8r	.
8g#/	Ma
8a/	pria
8cc#\	che_il
=27	=27
2cc#\	so-
8b\	-le
8b\	di
8.cc#\	raggi
16ff#\	a-
=28	=28
2ff#\	-dor-
16ee\	-no
16r	.
8ee\	s'ab-
8dd#\	-bia
8ee\	gl'_in-
!!LO:LB:g=original
=29	=29
[2gg#\	-cen-
8gg#\]	.
8ee\	-si,_io
8.b/	la
16g#/	ve-
=30	=30
[4b\	-dro.
8b\]	.
8r	.
2r	.
=31	=31
!LO:TX:a:t=2	!
1r	.
=32	=32
!LO:TX:a:t=allegro feroce	!
1r	.
!!LO:LB:g=original
=33||	=33||
*k[]	*
!LO:TX:a:t=4	!
1r	.
=34	=34
1r	.
=35	=35
1r	.
=36	=36
1r	.
=37	=37
2r	.
*clefG2	*
!LO:TX:a:t=R.	!
8r	.
8a/	Ma
8a/	qua-
8a/	-li
=38	=38
4.dd\	gri-
8a/	-da!
4a/	chi
8g/	stol-
8a/	-lo
=39	=39
4g/	ar-
4f/	-dia
4r	.
!LO:TX:t=P:problem=wykreślony takt	!
4f/	di
!!LO:LB:g=original
=40	=40
8.f/	que-
16f/	-ste
8f/	se-
8f/	-glie
4g/	tur-
8a/	-bar
8a/	la
=41	=41
4g/	pa-
4f/	-ce?
2r	.
=42	=42
!LO:TX:a:t=3	!
1r	.
=43	=43
1r	.
=44	=44
1r	.
=45	=45
2r	.
*clefG2	*
!LO:TX:a:t=D&colon;	!
4g#X/	For-
8b\	-se
8dd\	Ne-
!!LO:LB:g=original
=46	=46
4.ff\	-a-
8dd\	-li,_al-
4dd\	-cu-
8b\	-no
!LO:TX:t=P:problem=wykreślony takt	!
8a/	au-
=47	=47
4g#X/	-da-
8b\	-ce
8cc\	mi-
4cc\	-nac-
8b\	-cia,
8r	.
=48	=48
8r	.
8b\	o
4.ee\	ciel!
8dd\	sal-
8.b/	-var
16g#X/	la
=49||	=49||
!LO:TX:a:t=Scena 2.	!
4e/	vuò.
4ryy	.
2ryy	.
==	==
*-	*-
!!!system-decoration: [(s1)]
!!!RDF**kern: < = below
!!!RDF**kern: > = above
!!!ENC: Andrzej Gręziak
!!!END: 2021-09-08
!!!ENC: Marta Chmielewska
!!!END: 2021-10-18
!!!YEC: Copyright 2022 Narodowy Instytut Fryderyka Chopina (https://polishscores.org)
!!!YEM: License CC-BY-4.0 (https://creativecommons.org/licenses/by/4.0)
